X: 1
T: MacArthur Road #1  [E]
C: Dave Richardson
M: C|
L: 1/8
Z: John Chambers <jc:trillian.mit.edu> from handwritten MS (by Barbara McOwen?)
K: E
ec \
| "E"BG~G2 Bcef | g2-ge "(E7)"fece | "A"f2ge fece | "F#m"aege "B7"fece |
| "E"BG~G2 Bcef | g2-ge "(E7)"fece | "A"f2ge "F#m"f[gc]ec | "B7"Bcef "E"e2 :|
|: ga \
| "E"be~e2 bec'e | be~e2 "E7"fece | "A"f2ge fece | "F#m"aege "B7"fece |
|1 "E"be~e2 bec'e | be~e2 "E7"fece | "A"f2ge "F#m"f[gc]ec | "B7"Bcef "E"e2 :|
|2 "E"BG~G2 Bcef | g2-ge "E7"fece | "A"f2ge "F#m"f[gc]ec | "B7"Bcef "E"e2 |]
